svg/archive_marker.svg

<svg xmlns="http://www.w3.org/2000/svg" viewBox="0 0 24 24"><path d="M21 7H3V3h18zm-7.37 6H9v-1.5c0-.28.22-.5.5-.5h5c.22 0 .4.14.47.33.96-.83 2.2-1.33 3.53-1.33.5 0 1 .08 1.5.22V8H4v13h11.19C14.12 19.43 13 17.35 13 15.5c0-.89.23-1.74.63-2.5M22 15.5c0 2.6-3.5 6.5-3.5 6.5S15 18.1 15 15.5c0-1.9 1.6-3.5 3.5-3.5s3.5 1.6 3.5 3.5m-2.3.1c0-.6-.6-1.2-1.2-1.2s-1.2.5-1.2 1.2c0 .6.5 1.2 1.2 1.2s1.3-.6 1.2-1.2"/></svg>

<svg xmlns="http://www.w3.org/2000/svg" id="mdi-archive-marker" viewBox="0 0 24 24"><path d="M21 7H3V3H21V7M13.63 13H9V11.5C9 11.22 9.22 11 9.5 11H14.5C14.72 11 14.9 11.14 14.97 11.33C15.93 10.5 17.17 10 18.5 10C19 10 19.5 10.08 20 10.22V8H4V21H15.19C14.12 19.43 13 17.35 13 15.5C13 14.61 13.23 13.76 13.63 13M22 15.5C22 18.1 18.5 22 18.5 22S15 18.1 15 15.5C15 13.6 16.6 12 18.5 12S22 13.6 22 15.5M19.7 15.6C19.7 15 19.1 14.4 18.5 14.4S17.3 14.9 17.3 15.6C17.3 16.2 17.8 16.8 18.5 16.8S19.8 16.2 19.7 15.6Z" /></svg>
